X:1
T:Krieger-Chor
T:Krieger-Chor
T:Musik zu Friedrich Dunker's Drama: Leonore Prohaska
T:Ludwig van Beethoven
C:Ludwig van Beethoven
%%score [ 1 2 3 4 ]
L:1/8
Q:1/4=72
M:2/4
K:Bb
V:1 treble-8 nm="Tenor 1"
V:2 treble-8 nm="Tenor 2"
V:3 bass nm="Baryton"
V:4 bass nm="Bass"
V:1
"^Andante"!f! d2 d d/ d/ | !>!d c z2 | f2 f f/ f/ | f d !fermata!z B | B B/ B/ B B | %5
w: Wir bau- en und|ster- ben;|Wir bau- en und|ster- ben; Aus|Trüm- mern er- steht, ist|
 c c/ c/ c d/ d/ | d d/ d/ e f | g g/ g/ g e/ d/ |!p! (cd) B z | z4 | z2 z!ff! g | %11
w: längst uns- re A- sche vom|Win- de ver- weht, der|Tem- pel der Frei- heit und|Lie- * be,||der|
 g g/ g/ g e/ d/ |[Q:1/4=51]"^Adagio" (cd) B z |] %13
w: Tem- pel der Frei- heit und|Lie- * be.|
V:2
!f! B2 B B/ B/ | !>!B A z2 | c2 B c/ c/ | d d !fermata!z F | F F/ F/ G G | G G/ G/ A A/ A/ | %6
w: Wir bau- en und|ster- ben;|Wir bau- en und|ster- ben; Aus|Trüm- mern er- steht, ist|längst uns- re A- sche vom|
 B B/ B/ B d | e e/ e/ e c/ B/ |!p! (AB) B!ff! B | B B/ B/ B2- | B2 B B | B B/ e/ e c/ B/ | %12
w: Win- de ver- weht, der|Tem- pel der Frei- heit und|Lie- * be, der|Tem- pel der Frei-|* heit, der|Tem- pel der Frei- heit und|
 (AB) B z |] %13
w: Lie- * be.|
V:3
!f! F,2 F, F,/ F,/ | !>!F, F, z2 | A,2 B, C/ C/ | B, B, !fermata!z D, | F, D,/ D,/ G, G, | %5
w: Wir bau- en und|ster- ben;|Wir bau- en und|ster- ben; Aus|Trüm- mern er- steht, ist|
 E, G,/ G,/ F, ^F,/ F,/ | G, F,/ F,/ G, _A, | B, B,/ B,/ B, G,/ F,/ |!p! F,2 D, z | z2 z!ff! E | %10
w: längst uns- re A- sche vom|Win- de ver- weht, der|Tem- pel der Frei- heit und|Lie- be,|der|
 E E/ E/ E2- | E E/ B,/ B, G,/ F,/ | F,2 D, z |] %13
w: Tem- pel der Frei-|* heit, der Frei- heit und|Lie- be.|
V:4
!f! B,,2 D, =E,/ E,/ | !>!F, F, z2 | F,2 G, A,/ A,/ | B, B,, !fermata!z D, | D, B,,/ B,,/ E, E, | %5
w: Wir bau- en und|ster- ben;|Wir bau- en und|ster- ben; Aus|Trüm- mern er- steht, ist|
 C, E,/ E,/ F, D,/ D,/ | G, _A,/ A,/ G, F, | E, G,/ B,/ E E,/ F,/ |!p! F,2 B,, z | z2 z!ff! G, | %10
w: längst uns- re A- sche vom|Win- de ver- weht, der|Tem- pel der Frei- heit und|Lie- be,|der|
 G, G,/ G,/ G, E,/ E,/ | E, G,/ B,/ E E,/ F,/ | F,2 B,, z |] %13
w: Tem- pel der Frei- heit, der|Tem- pel der Frei- heit und|Lie- be.|

